X:1
T:Title
%%score { 1 | 2 }
L:1/8
Q:1/4=80
M:2/4
K:Eb
V:1 treble nm="Grand Piano"
V:2 bass 
V:1
 GE FG | [FA][EG] [DF]2 | FE D2 | [DG][DF] E2 | GE FG | AG [DF]2 | FE D[DF] | E4 | BG AB | cA F2 | %10
w: Elisha~A.~Hoffman * * *||||||||||
 [DA][DF] [EG][FA] | [GB]G E2 | BG [FA][GB] | [EAc][CEA] [CEF]2 | [F,B,D][B,DF] [DB]D | E4 |] %16
w: ||||||
V:2
 [E,B,E][E,G,] [E,A,E][E,B,E] | [B,,B,][B,,B,] [B,,B,]2 | [B,,A,B,][B,,G,B,] [B,,F,B,]2 | %3
 [B,,B,][B,,A,] [E,G,]2 | [E,B,E][E,G,] [E,A,E][E,B,E] | [E,CE][E,B,E] [B,,B,]2 | %6
 [B,,A,][B,,G,B,] [B,,F,B,][B,,A,] | [E,G,]4 | [E,G,E][E,B,E] [F,B,E][G,B,E] | %9
 [A,E][A,CE] [A,CE]2 | [B,,B,][B,,B,] [B,,B,][B,,B,] | [E,B,][E,B,E] [E,G,B,]2 | %12
 [E,G,E][E,B,E] [E,E][E,E] | A,,A,, A,,2 | B,,B,, [B,,F,][B,,A,B,] | [E,G,B,]4 |] %16

